assets/icons/chatbubble.svg

<svg width="18" height="18" viewBox="0 0 18 18" fill="none" xmlns="http://www.w3.org/2000/svg">
<path d="M2.70109 16.875C2.46199 16.8739 2.23308 16.778 2.06456 16.6084C1.89605 16.4387 1.80168 16.2092 1.80215 15.9701C1.80424 15.8792 1.81843 15.789 1.84433 15.7018L2.49191 13.3594C2.51898 13.2729 2.4884 13.1857 2.44867 13.1168L2.44094 13.1027C2.43812 13.0982 2.42476 13.0795 2.41527 13.0658C2.40578 13.0521 2.39488 13.0373 2.38504 13.0229L2.37836 13.0134C1.56068 11.7741 1.12488 10.322 1.12504 8.83723C1.11871 6.81258 1.91078 4.89973 3.35605 3.44848C4.8516 1.95012 6.85199 1.125 8.99371 1.125C10.8106 1.1241 12.5736 1.7421 13.9922 2.87719C15.3791 3.9934 16.3431 5.54906 16.7066 7.26047C16.8185 7.78037 16.8749 8.31069 16.8747 8.8425C16.8747 10.9143 16.0787 12.8602 14.6331 14.3223C13.1748 15.7989 11.2166 16.6096 9.11957 16.6096C8.38129 16.6096 7.43664 16.4211 6.98312 16.2932C6.4375 16.1406 5.92035 15.9416 5.8634 15.9205C5.80312 15.8974 5.73915 15.8855 5.67461 15.8854C5.60461 15.8849 5.53524 15.8987 5.4707 15.9258L5.44082 15.9374L3.06848 16.7945C2.95196 16.8435 2.82744 16.8708 2.70109 16.875Z" fill="_COLOR_VAR_"/>
</svg>

<svg xmlns="http://www.w3.org/2000/svg" width="18" height="18"><path d="M2.701 16.875a.903.903 0 0 1-.857-1.173l.648-2.343c.027-.086-.004-.173-.043-.242l-.008-.014-.026-.037-.03-.043-.007-.01a7.6 7.6 0 0 1-1.253-4.176 7.56 7.56 0 0 1 2.231-5.389 7.9 7.9 0 0 1 5.638-2.323c1.817 0 3.58.617 4.998 1.752a7.7 7.7 0 0 1 2.715 4.383 7.74 7.74 0 0 1-2.074 7.062A7.7 7.7 0 0 1 9.12 16.61c-.739 0-1.683-.189-2.137-.317-.545-.152-1.063-.351-1.12-.372a.53.53 0 0 0-.392.005l-.03.011-2.373.857a1 1 0 0 1-.367.081"/></svg>
